icon/lg/opencollective.svg

<?xml version="1.0" encoding="UTF-8"?>
<svg viewBox="0 0 256 256" version="1.1" xmlns="http://www.w3.org/2000/svg" xmlns:xlink="http://www.w3.org/1999/xlink" preserveAspectRatio="xMidYMid" height="1em" width="1em">
  <g>
    <path d="M209.765144,128.149979 C209.765144,144.1633 204.864381,159.48989 196.498747,172.725072 L229.945675,206.171999 C246.682105,183.856759 255.729307,156.715152 255.729307,128.821102 C255.729307,99.5569917 245.974603,73.0710207 229.258944,51.4858128 L196.48314,84.214794 C205.122561,97.2224683 209.736907,112.48781 209.749537,128.103156 L209.765144,128.149979 Z" fill="#B8D3F4"/>
    <path d="M127.513484,210.354816 C82.1460872,210.268958 45.3875094,173.517358 45.2930393,128.149979 C45.3617502,82.7643138 82.1278487,45.984257 127.513484,45.8983186 C144.244752,45.8983186 159.571342,50.7990817 172.119792,59.1647154 L204.864381,26.3889116 C182.54365,9.66665129 155.403429,0.630863298 127.513484,0.636494403 C57.1235437,0.636494403 0,57.7600381 0,128.149979 C0,198.508704 57.1235437,255.663463 127.513484,255.663463 C155.537352,255.740876 182.775989,246.40851 204.864381,229.161884 L171.417454,195.730564 C159.555734,205.485268 144.260359,210.354816 127.513484,210.354816 L127.513484,210.354816 Z" fill="#7FADF2"/>
  </g>
</svg>

<svg width="256" height="256" xmlns="http://www.w3.org/2000/svg" preserveAspectRatio="xMidYMid"><path d="M209.765 128.15c0 16.013-4.9 31.34-13.266 44.575l33.447 33.447a128.918 128.918 0 0 0 25.783-77.35c0-29.265-9.754-55.751-26.47-77.336l-32.776 32.729a79.442 79.442 0 0 1 13.267 43.888l.015.047Z" fill="#B8D3F4"/><path d="M127.513 210.355c-45.367-.086-82.125-36.838-82.22-82.205.069-45.386 36.835-82.166 82.22-82.252 16.732 0 32.058 4.901 44.607 13.267l32.744-32.776A128.965 128.965 0 0 0 127.514.636C57.123.636 0 57.76 0 128.15c0 70.359 57.124 127.513 127.513 127.513a125.126 125.126 0 0 0 77.351-26.501l-33.447-33.431c-11.861 9.754-27.157 14.624-43.904 14.624Z" fill="#7FADF2"/></svg>
